img/03675-icon-service-Azure-Managed-Redis.svg

<svg width="18" height="18" viewBox="0 0 18 18" fill="none" xmlns="http://www.w3.org/2000/svg"><path fill-rule="evenodd" clip-rule="evenodd" d="M8.99976 0.500244C9.2759 0.500244 9.49976 0.724102 9.49976 1.00024V2H11.4998V1.00024C11.4998 0.724102 11.7236 0.500244 11.9998 0.500244C12.2759 0.500244 12.4998 0.724102 12.4998 1.00024V2H14C15.1046 2 16 2.89543 16 4V5.5H16.9995C17.2757 5.5 17.4995 5.72386 17.4995 6C17.4995 6.27614 17.2757 6.5 16.9995 6.5H16V8.5H16.9995C17.2757 8.5 17.4995 8.72386 17.4995 9C17.4995 9.27614 17.2757 9.5 16.9995 9.5H16V11.5H16.9995C17.2757 11.5 17.4995 11.7239 17.4995 12C17.4995 12.2761 17.2757 12.5 16.9995 12.5H16V14C16 15.1046 15.1046 16 14 16H12.4998V16.9998C12.4998 17.2759 12.2759 17.4998 11.9998 17.4998C11.7236 17.4998 11.4998 17.2759 11.4998 16.9998V16H9.49976V16.9998C9.49976 17.2759 9.2759 17.4998 8.99976 17.4998C8.72361 17.4998 8.49976 17.2759 8.49976 16.9998V16H6.49976V16.9998C6.49976 17.2759 6.2759 17.4998 5.99976 17.4998C5.72361 17.4998 5.49976 17.2759 5.49976 16.9998V16H4C2.89543 16 2 15.1046 2 14V12.5H1C0.723858 12.5 0.5 12.2761 0.5 12C0.5 11.7239 0.723858 11.5 1 11.5H2V9.5H1C0.723858 9.5 0.5 9.27614 0.5 9C0.5 8.72386 0.723858 8.5 1 8.5H2V6.5H1C0.723858 6.5 0.5 6.27614 0.5 6C0.5 5.72386 0.723858 5.5 1 5.5H2V4C2 2.89543 2.89543 2 4 2H5.49976V1.00024C5.49976 0.724102 5.72361 0.500244 5.99976 0.500244C6.2759 0.500244 6.49976 0.724102 6.49976 1.00024V2H8.49976V1.00024C8.49976 0.724102 8.72361 0.500244 8.99976 0.500244ZM8.98398 3H6.01553C6.01029 3.00016 6.00503 3.00024 5.99976 3.00024C5.99448 3.00024 5.98922 3.00016 5.98398 3H4C3.44772 3 3 3.44772 3 4V14C3 14.5523 3.44772 15 4 15H5.98398C5.98922 14.9998 5.99448 14.9998 5.99976 14.9998C6.00503 14.9998 6.01029 14.9998 6.01553 15H8.98398C8.98922 14.9998 8.99448 14.9998 8.99976 14.9998C9.00503 14.9998 9.01029 14.9998 9.01553 15H11.984C11.9892 14.9998 11.9945 14.9998 11.9998 14.9998C12.005 14.9998 12.0103 14.9998 12.0155 15H14C14.5523 15 15 14.5523 15 14V12.0223C14.9997 12.0149 14.9995 12.0075 14.9995 12C14.9995 11.9925 14.9997 11.9851 15 11.9777V9.0223C14.9997 9.0149 14.9995 9.00747 14.9995 9C14.9995 8.99253 14.9997 8.9851 15 8.9777V6.0223C14.9997 6.01491 14.9995 6.00747 14.9995 6C14.9995 5.99253 14.9997 5.98509 15 5.9777V4C15 3.44772 14.5523 3 14 3H12.0155C12.0103 3.00016 12.005 3.00024 11.9998 3.00024C11.9945 3.00024 11.9892 3.00016 11.984 3H9.01553C9.01029 3.00016 9.00503 3.00024 8.99976 3.00024C8.99448 3.00024 8.98922 3.00016 8.98398 3Z" fill="url(#paint0_linear_9978_2280)" /><rect x="4" y="4" width="10" height="10" rx="0.5" fill="url(#paint1_linear_9978_2280)" /><path d="M12.124 9.31035C11.6398 9.87706 11.1168 10.5248 10.071 10.5248C9.13671 10.5248 8.78867 9.75932 8.7642 9.13752C8.96888 9.53956 9.36907 9.86514 9.99345 9.85007C11.1943 9.81409 12.0174 8.8066 12.0174 7.88906C12.0174 6.7916 11.1362 6 9.60609 6C8.51178 6 7.156 6.3868 6.26505 6.9985C6.25537 7.62819 6.63305 8.44678 6.76863 8.35682C7.54102 7.84097 8.15349 7.5089 8.74755 7.3424C7.86818 8.25328 5.75833 10.3683 5.5 10.7407C5.52905 11.0825 5.98421 12 6.20694 12C6.27473 12 6.33284 11.964 6.40063 11.9011C7.0367 11.2372 7.55522 10.642 8.01643 10.0683C8.08119 10.9091 8.5263 11.937 9.77072 11.937C10.8844 11.937 11.9884 11.1904 12.492 9.50824C12.5501 9.30135 12.2789 9.13943 12.124 9.31035ZM10.8554 7.95202C10.8554 8.48276 10.2937 8.74363 9.78041 8.74363C9.50605 8.74363 9.2953 8.67671 9.12862 8.58976C9.4353 8.1584 9.73887 7.71608 10.0651 7.24258C10.6402 7.333 10.8554 7.62994 10.8554 7.95202Z" fill="white" /><defs><linearGradient id="paint0_linear_9978_2280" x1="0.500001" y1="17.2531" x2="17.4995" y2="0.500244" gradientUnits="userSpaceOnUse"><stop stop-color="#757575" /><stop offset="0.91516" stop-color="#B0B0B0" /></linearGradient><linearGradient id="paint1_linear_9978_2280" x1="13.2765" y1="4.61627" x2="4.53568" y2="13.3926" gradientUnits="userSpaceOnUse"><stop stop-color="#0078D4" /><stop offset="1" stop-color="#005BA1" /></linearGradient><rect width="18" height="18" fill="white" /></defs></svg>

<svg id="uuid-8e49878e-6f1e-45dc-b13f-de3f3b0a3028" xmlns="http://www.w3.org/2000/svg" width="18" height="18" viewBox="0 0 18 18"><defs><linearGradient id="uuid-e275200f-8047-483d-9165-335881dc0492" x1=".562" y1="2.684" x2="17.561" y2="19.437" gradientTransform="translate(0 20) scale(1 -1)" gradientUnits="userSpaceOnUse"><stop offset="0" stop-color="#757575" /><stop offset=".915" stop-color="#b0b0b0" /></linearGradient><linearGradient id="uuid-a8467988-fb81-47a9-9300-4fac9dcb97a4" x1="13.321" y1="15.339" x2="4.581" y2="6.563" gradientTransform="translate(0 20) scale(1 -1)" gradientUnits="userSpaceOnUse"><stop offset="0" stop-color="#0078d4" /><stop offset="1" stop-color="#005ba1" /></linearGradient></defs><path d="M9,.5c.276,0,.5.224.5.5v1h2v-1c0-.276.224-.5.5-.5s.5.224.5.5v1h1.5c1.105,0,2,.895,2,2v1.5h1c.276,0,.5.224.5.5s-.224.5-.5.5h-1v2h1c.276,0,.5.224.5.5s-.224.5-.5.5h-1v2h1c.276,0,.5.224.5.5s-.224.5-.5.5h-1v1.5c0,1.105-.895,2-2,2h-1.5v1c0,.276-.224.5-.5.5s-.5-.224-.5-.5v-1h-2v1c0,.276-.224.5-.5.5s-.5-.224-.5-.5v-1h-2v1c0,.276-.224.5-.5.5s-.5-.224-.5-.5v-1h-1.5c-1.105,0-2-.895-2-2v-1.5h-1c-.276,0-.5-.224-.5-.5s.224-.5.5-.5h1v-2h-1c-.276,0-.5-.224-.5-.5s.224-.5.5-.5h1v-2h-1c-.276,0-.5-.224-.5-.5s.224-.5.5-.5h1v-1.5c0-1.105.895-2,2-2h1.5v-1c0-.276.224-.5.5-.5s.5.224.5.5v1h2v-1c0-.276.224-.5.5-.5ZM8.984,3h-2.968c-.005,0-.01,0-.016,0s-.011,0-.016,0h-1.984c-.552,0-1,.448-1,1v10c0,.552.448,1,1,1h1.984c.005,0,.01,0,.016,0s.011,0,.016,0h2.968c.005,0,.01,0,.016,0s.011,0,.016,0h2.968c.005,0,.01,0,.016,0,.005,0,.01,0,.016,0h1.984c.552,0,1-.448,1-1v-1.978c0-.007,0-.015,0-.022s0-.015,0-.022v-2.955c0-.007,0-.015,0-.022s0-.015,0-.022v-2.955c0-.007,0-.015,0-.022s0-.015,0-.022v-1.978c0-.552-.448-1-1-1h-1.984c-.005,0-.01,0-.016,0-.005,0-.011,0-.016,0h-2.968c-.005,0-.01,0-.016,0s-.011,0-.016,0Z" fill="url(#uuid-e275200f-8047-483d-9165-335881dc0492)" fill-rule="evenodd" /><rect x="4" y="4" width="10" height="10" rx=".5" ry=".5" fill="url(#uuid-a8467988-fb81-47a9-9300-4fac9dcb97a4)" /><path d="M12.124,9.31c-.484.567-1.007,1.214-2.053,1.214-.934,0-1.282-.765-1.307-1.387.205.402.605.728,1.229.713,1.201-.036,2.024-1.043,2.024-1.961,0-1.097-.881-1.889-2.411-1.889-1.094,0-2.45.387-3.341.998-.01.63.368,1.448.504,1.358.772-.516,1.385-.848,1.979-1.014-.879.911-2.989,3.026-3.248,3.398.029.342.484,1.259.707,1.259.068,0,.126-.036.194-.099.636-.664,1.155-1.259,1.616-1.833.065.841.51,1.869,1.754,1.869,1.114,0,2.218-.747,2.721-2.429.058-.207-.213-.369-.368-.198ZM10.855,7.952c0,.531-.562.792-1.075.792-.274,0-.485-.067-.652-.154.307-.431.61-.874.936-1.347.575.09.79.387.79.709Z" fill="#fff" /></svg>
